X:1
T:Title
%%score ( 1 2 ) ( 3 4 )
L:1/8
Q:1/4=107
M:4/4
K:Ab
V:1 treble nm="Grand Piano, Soprano"
V:2 treble 
V:3 bass nm="Choir Pad, What Will You Do with Jesus"
V:4 bass 
V:1
 [CE]2 [Ec]2- [Ec][Ec] [Fd]2 | [Ec]2 [Dc]2 [DB]2 [DF]2- | [DF][DF] [DG]2 [CA]2 [Ec]2- | %3
w: By~John~Otho~Beall * * * *|||
 [Ec][DB] [DB]2 [CA]2 [CE]2- | [CE][CE] [Ec]2 [Ec]2 [Fd]2- | [Fd][Ec] [=Dc]2 [DB]2 [DF]2- | %6
w: |||
 [DF][=DF] [_DG]2 [CA]2 [Ec]2- | [Ec][CA] [DB]2 [CA]4 | [CE]2 [Ec]2- [Ec][Ec] [Fd]2 | %9
w: |||
 [Ec]2 [Dc]2 [DF]4 | [=DF]2 [EB]2- [EB][E=A] [Ec]2 | z2 E6 | [CE]2 [Ec]2- [Ec][Ec] [Fd]2 | %13
w: ||||
 [Ec]2 [=Dc]2 [DF]4 | [=DF]2 [_DA]2- [DA][CA] [Ec]2 | [DB]2 [CA]6- | [CA]2 z2 z4 |] %17
w: ||||
V:2
 x8 | x8 | x8 | x8 | x8 | x8 | x8 | x8 | x8 | x8 | x8 | [DB]2 B,2 C2 D2 | x8 | x8 | x8 | x8 | x8 |] %17
V:3
 [A,,A,]2 [A,,A,]2- [A,,A,][A,,A,] [A,,A,]2 | [A,,A,]2 [D,F,]2 [D,F,]2 [D,B,]2- | %2
 [D,B,][D,B,] [E,B,]2 [E,A,]2 [E,A,]2- | [E,A,][E,G,] [A,,A,]2 [A,,A,]2 [A,,A,]2- | %4
 [A,,A,][A,,A,] [A,,A,]2 [A,,A,]2 [A,,A,]2- | [A,,A,][A,,A,] [B,,A,]2 [B,,A,]2 [B,,A,]2- | %6
 [B,,A,][B,,A,] [E,B,]2 [E,A,]2 [E,A,]2- | [E,A,][E,A,] [E,G,]2 [A,,A,]4 | %8
 [A,,A,]2 [A,,A,]2- [A,,A,][A,,A,] [A,,A,]2 | [A,,A,]2 [D,F,]2 [D,B,]4 | %10
 [F,A,]2 [E,G,]2- [E,G,][E,_G,] [E,A,]2 | [E,G,]2 G,2 A,2 B,2 | %12
 [A,,A,]2 [A,,A,]2- [A,,A,][A,,A,] [A,,A,]2 | [A,,A,]2 [B,,A,]2 [B,,B,]4 | %14
 [B,,B,]2 [E,B,]2- [E,B,][E,A,] [E,A,]2 | [E,G,]2 [A,,A,]6- | [A,,A,]2 z2 z4 |] %17
V:4
 x8 | x8 | x8 | x8 | x8 | x8 | x8 | x8 | x8 | x8 | x8 | z2 E,6 | x8 | x8 | x8 | x8 | x8 |] %17

